assets/svgs/misc-grey/MiscGrey6.svg

<svg width="50" height="50" viewBox="0 0 50 50" fill="none" xmlns="http://www.w3.org/2000/svg">
<path fill-rule="evenodd" clip-rule="evenodd" d="M0 24.8944C0 11.1444 11.15 0 24.9 0C38.65 0 49.8 11.1444 49.8 24.8944C49.8 38.6444 38.65 49.7944 24.9 49.7944C11.15 49.7944 0 38.6444 0 24.8944ZM26.5 36.1L36.1055 26.5C36.9889 25.6111 36.9889 24.1834 36.1055 23.3L26.5 13.6945C25.6166 12.8111 24.1833 12.8111 23.3 13.6945L13.6944 23.3C12.8111 24.1834 12.8111 25.6167 13.6944 26.5L23.3 36.1C24.1833 36.9834 25.6166 36.9834 26.5 36.1Z" fill="#1A1919"/>
</svg>

<svg xmlns="http://www.w3.org/2000/svg" viewBox="0 0 50 50"><path fill-rule="evenodd" d="M0 24.894C0 11.144 11.15 0 24.9 0c13.75 0 24.9 11.144 24.9 24.894 0 13.75-11.15 24.9-24.9 24.9-13.75 0-24.9-11.15-24.9-24.9zM26.5 36.1l9.605-9.6a2.263 2.263 0 000-3.2L26.5 13.694a2.263 2.263 0 00-3.2 0L13.694 23.3a2.263 2.263 0 000 3.2l9.606 9.6a2.263 2.263 0 003.2 0z" clip-rule="evenodd"/></svg>
